OFDR/img/documents/crane.svg

<svg width="66" height="66" viewBox="0 0 66 66" fill="none" xmlns="http://www.w3.org/2000/svg">
<g id="crane">
<path id="Shape" fill-rule="evenodd" clip-rule="evenodd" d="M56.1 31.9C56.1 32.5075 55.6075 33 55 33H52.8V35.3386C53.9883 35.641 54.9955 36.4272 55.5772 37.5064C56.7255 39.637 55.9294 42.295 53.7988 43.4434L62.0554 51.7H64.9C65.5075 51.7 66 52.1925 66 52.8V62.7C66 63.3075 65.5075 63.8 64.9 63.8H38.5C37.8925 63.8 37.4 63.3075 37.4 62.7V52.8C37.4 52.1925 37.8925 51.7 38.5 51.7H41.3446L49.6012 43.4434C48.1884 42.6802 47.3056 41.2059 47.3 39.6V38.5H49.5V39.6C49.5 40.8151 50.4849 41.8 51.7 41.8C52.9151 41.8 53.9 40.8151 53.9 39.6C53.9 38.3849 52.9151 37.4 51.7 37.4C51.0925 37.4 50.6 36.9075 50.6 36.3V33H48.4C47.7925 33 47.3 32.5075 47.3 31.9V16.5H25.3V36.9446L29.3777 41.0223C29.584 41.2286 29.7 41.5082 29.7 41.8V59.4H31.9V66H9.9V59.4H12.1V41.8C12.1 41.5082 12.2161 41.2286 12.4223 41.0223L16.5 36.9446V16.5011H1.1C0.492525 16.5011 0 16.0086 0 15.4011V11.0011C0 10.9946 0.00191465 10.9886 0.00383446 10.9825L0.00383506 10.9825C0.00576503 10.9765 0.0077 10.9704 0.0077 10.9637C0.0105875 10.8337 0.0367125 10.7051 0.0847 10.5842V10.571C0.138187 10.451 0.212575 10.3414 0.3047 10.2476C0.337425 10.2177 0.371938 10.1898 0.4081 10.164C0.45485 10.1184 0.505587 10.0771 0.5599 10.0408L18.1599 0.140853C18.1731 0.133666 18.1856 0.129414 18.1989 0.124901C18.21 0.121125 18.2217 0.117166 18.2347 0.111153C18.2607 0.0991481 18.2858 0.0898727 18.3125 0.080017L18.3125 0.080011L18.3205 0.077053C18.4414 0.028928 18.5699 0.00294053 18.7 5.30357e-05H23.1C23.1844 -0.000771964 23.2686 0.00802803 23.3508 0.026453L65.1508 9.92645C65.1694 9.93078 65.1855 9.93931 65.2018 9.94789C65.2144 9.95455 65.2271 9.96124 65.241 9.96605C65.3008 9.98653 65.3586 10.0122 65.4137 10.043C65.6012 10.1422 65.7546 10.2955 65.8537 10.483C65.8831 10.5347 65.9081 10.5888 65.9285 10.6447C65.953 10.7208 65.9688 10.7994 65.9758 10.879C65.9863 10.9189 65.9944 10.9592 66 11V15.4C66 16.0075 65.5075 16.5 64.9 16.5H56.1V31.9ZM63.8 12.1H56.1V14.3H63.8V12.1ZM63.8 53.9V61.6H39.6V53.9H63.8ZM51.7 44.4556L44.4554 51.7H58.9446L51.7 44.4556ZM53.9 26.4H49.5V16.5H53.9V26.4ZM49.5 14.3H53.9V12.1H49.5V14.3ZM19.8 2.20005H22V9.90005H19.8V2.20005ZM23.1 12.1H18.7V14.3H22.6446L23.1 13.8446V12.1ZM23.1 24.8446L19.1554 20.9L23.1 16.9554V24.8446ZM20.4446 16.5H18.7V18.2446L20.4446 16.5ZM18.7 23.5556L22.6446 27.5L18.7 31.4446V23.5556ZM23.1 37.4V30.1556L19.1554 34.1L23.1 38.0446V37.4ZM18.7 37.4V36.7554L22.6446 40.7L18.7 44.6446V37.4ZM23.1 51.2448V43.3556L19.1554 47.3L23.1 51.2448ZM18.7 49.9556L22.6446 53.9L18.7 57.8446V49.9556ZM23.1 59.4V56.5555L20.2554 59.4H23.1ZM17.6 2.98105V9.90005H5.2987L17.6 2.98105ZM2.2 12.1V14.3H16.5V12.1H2.2ZM14.3 42.2556L16.5 40.0556V59.4H14.3V42.2556ZM29.7 63.8V61.6H12.1V63.8H29.7ZM27.5 42.2556V59.4H25.3V40.0556L27.5 42.2556ZM25.3 14.3H47.3V12.1H25.3V14.3ZM24.2 9.90005V2.49045L55.4829 9.90005H55H24.2ZM49.5 28.6V30.8H53.9V28.6H49.5Z" fill="#86ADEF"/>
</g>
</svg>

<svg width="66" height="66" fill="none" xmlns="http://www.w3.org/2000/svg"><path fill-rule="evenodd" clip-rule="evenodd" d="M56.1 31.9A1.1 1.1 0 0155 33h-2.2v2.339a4.383 4.383 0 01.999 8.104l8.256 8.257H64.9a1.1 1.1 0 011.1 1.1v9.9a1.1 1.1 0 01-1.1 1.1H38.5a1.1 1.1 0 01-1.1-1.1v-9.9a1.1 1.1 0 011.1-1.1h2.845l8.256-8.257A4.386 4.386 0 0147.3 39.6v-1.1h2.2v1.1a2.2 2.2 0 102.2-2.2 1.1 1.1 0 01-1.1-1.1V33h-2.2a1.1 1.1 0 01-1.1-1.1V16.5h-22v20.445l4.078 4.077a1.1 1.1 0 01.322.778v17.6h2.2V66h-22v-6.6h2.2V41.8a1.1 1.1 0 01.322-.778l4.078-4.077V16.5H1.1A1.1 1.1 0 010 15.4V11c0-.006.002-.012.004-.018a.06.06 0 00.004-.02c.003-.13.029-.258.077-.379v-.013c.053-.12.128-.23.22-.323.032-.03.067-.058.103-.084.047-.046.098-.087.152-.123l17.6-9.9a.236.236 0 01.039-.016l.036-.014a.905.905 0 01.078-.031l.008-.003C18.44.03 18.57.003 18.7 0h4.4c.084 0 .169.008.25.026l41.8 9.9c.02.005.035.013.052.022a.28.28 0 00.039.018c.06.02.118.046.173.077.187.1.34.253.44.44.03.052.054.106.075.162.024.076.04.154.047.234.01.04.018.08.024.121v4.4a1.1 1.1 0 01-1.1 1.1h-8.8v15.4zm7.7-19.8h-7.7v2.2h7.7v-2.2zm0 41.8v7.7H39.6v-7.7h24.2zm-12.1-9.444L44.455 51.7h14.49L51.7 44.456zM53.9 26.4h-4.4v-9.9h4.4v9.9zm-4.4-12.1h4.4v-2.2h-4.4v2.2zM19.8 2.2H22v7.7h-2.2V2.2zm3.3 9.9h-4.4v2.2h3.945l.455-.455V12.1zm0 12.745L19.155 20.9l3.945-3.945v7.89zM20.445 16.5H18.7v1.745l1.745-1.745zM18.7 23.556l3.945 3.944-3.945 3.945v-7.89zM23.1 37.4v-7.244L19.155 34.1l3.945 3.945V37.4zm-4.4 0v-.645l3.945 3.945-3.945 3.945V37.4zm4.4 13.845v-7.89L19.155 47.3l3.945 3.945zm-4.4-1.29l3.945 3.945-3.945 3.945v-7.89zm4.4 9.445v-2.844L20.255 59.4H23.1zM17.6 2.981v6.92H5.299L17.6 2.98zM2.2 12.1v2.2h14.3v-2.2H2.2zm12.1 30.156l2.2-2.2V59.4h-2.2V42.256zM29.7 63.8v-2.2H12.1v2.2h17.6zm-2.2-21.544V59.4h-2.2V40.056l2.2 2.2zM25.3 14.3h22v-2.2h-22v2.2zm-1.1-4.4V2.49L55.483 9.9H24.2zm25.3 18.7v2.2h4.4v-2.2h-4.4z" fill="#86ADEF"/></svg>
